!!!COM: Bach, Johann Sebastian
!!!CDT: 1685/02/21/-1750/07/28/
!!!OTL@@DE: Christ, unser Herr zum Jordan kam
!!!SCT: BWV 280
!!!PC#: 66
!!!AGN: chorale
**harm	**kern	**kern	**kern	**kern
*	*ICvox	*ICvox	*ICvox	*ICvox
*	*Ibass	*Itenor	*Ialto	*Isoprn
*	*I"Bass	*I"Tenor	*I"Alto	*I"Soprano
*>[A,A,B]	*>[A,A,B]	*>[A,A,B]	*>[A,A,B]	*>[A,A,B]
*>norep[A,B]	*>norep[A,B]	*>norep[A,B]	*>norep[A,B]	*>norep[A,B]
*>A	*>A	*>A	*>A	*>A
*	*	*oclefC4	*oclefC3	*oclefC1
*	*clefF4	*clefGv2	*clefG2	*clefG2
*k[]	*k[]	*k[]	*k[]	*k[]
*a:	*a:	*a:	*a:	*a:
*M4/4	*M4/4	*M4/4	*M4/4	*M4/4
*met(c)	*met(c)	*met(c)	*met(c)	*met(c)
*MM100	*MM100	*MM100	*MM100	*MM100
iv	4D	4F	4A	4d
=1	=1	=1	=1	=1
iv	4D	4A	4d	4f
III	4C	4c	4e	4g
VI	4F	4c	4f	4a
III	4C	4c	4e	4g
=2	=2	=2	=2	=2
i6	4C	4A	4e	4cc
V	4E	4G#	4e	4b
i;	4AA;	4c;	4e;	4a;
v	4E	4B	4e	4gnX
=3	=3	=3	=3	=3
i	4A	4A	4e	4cc
v6	8GnXL	8BL	8eL	8bL
d:viio43	8GJ	8c#J	8eJ	8bJ
i6	4F	4d	4f	4a
IV6	4BB	4D	4d	4g
=4	=4	=4	=4	=4
i	4D	4F	4A	4f
V	4AA	4A	4c#	4e
i;	4D;	4F;	4A;	4d;
*>B	*>B	*>B	*>B	*>B
i	4D	4F	4A	4d
=5	=5	=5	=5	=5
IV6	4BB	4D	4d	4g
C:V	4GG	4G	4B	4g
I	4C	4G	4c	4e
vi	4AA	4c	4e	4a
=6	=6	=6	=6	=6
a:V	4E	4B	4e	4g#
V	4EE	4B	4e	4g#
i;	4AA;	4c;	4e;	4a;
i	4A	4c	4e	4a
=7	=7	=7	=7	=7
C:V65/V	4F#	4c	4a	4dd
V	4G	4B	4gnX	4dd
I	4C	4c	4g	4ee
IV	4F	4A	4a	4cc
=8	=8	=8	=8	=8
viio6	4D	4B	4f	4dd
a:V7	4E	4G#	4d	4b
i;	4AA;	4E;	4c;	4a;
V	4E	4G#	4e	4b
=9	=9	=9	=9	=9
i	4A	8AL	4e	4cc
iio6	8DL	8FL	8dL	8bL
v7	8EJ	8GJ	8dJ	8bJ
VI	4F	4A	4c	4a
d:viio6	4E	4c#	4e	4g
=10	=10	=10	=10	=10
V65	4C#	4e	4A	4g
i	4D	4A	4d	4f
V;	4AA;	4A;	4c#;	4e;
i	4D	4F	4A	4d
=11	=11	=11	=11	=11
VI	8BB-L	8DL	8dL	8fL
i64	8AAJ	8FJ	8dJ	8fJ
viio6/III	4GG	4B-X	4e	4g
III7	4FF	4A	4e	4a
VI	4BB-	4B-	4d	4f
=12	=12	=12	=12	=12
iio6	4GG	4B-	4e	4g
V	4AA	4G	4c#	4e
i;	4DD;	4F;	4A;	4d;
C:V6/V	4F#	4D	4a	4dd
=13	=13	=13	=13	=13
V	4G	4B	4g	4dd
V6	8BL	8dL	8gL	8ddL
V	8GJ	8BJ	8gJ	8ddJ
I	4C	4c	4g	4ee
ii6	4FnX	4A	4a	4dd
=14	=14	=14	=14	=14
a:V(64)	4E	4A	4e	4cc
V7	4E	4G#	4d	4b
I;	4AA;	4E;	4c#;	4a;
==	==	==	==	==
*-	*-	*-	*-	*-
!!!YOR1: 371 vierstimmige Choralges&auml;nge von Johann Sebastian Bach, 
!!!YOR2: 4th ed. by Alfred D&ouml;rffel (Leipzig: Breitkopf und H&auml;rtel, 
!!!YOR2: c.1875). 178 pp. Plate "V.A.10".  reprint: J.S. Bach, 371 Four-Part 
!!!YOR4: Chorales (New York: Associated Music Publishers, Inc., c.1940).
!!!SMS: B&H, 4th ed, Alfred D&ouml;rffel, c.1875, plate V.A.10
!!!EED:  Craig Stuart Sapp
!!!EEV:  2009/05/22
